X: 24295
T: Lost Indian, The
R: hornpipe
M: 4/4
K: Dmajor
|:"D"DD F2 E2 F2|DD F2 E2 F2|DD F2 E2 F2|EFA2 "G"{A}B4|
BABc "D"{c}d4|A3BAFD2|{E}F2 FF "A"EDCE|"D"D8:|
|:"D"EF A2 A2 AA|EF A2 A2 AA|EFA2 EFA2|EFA2 "G"{A}B4|
BABc "D"{c}d4|A3BAFD2|{E}F2 FF "A"EDCE|"D"D8:|

